assets/Green salad/Flat/green_salad_flat.svg

<svg width="32" height="32" viewBox="0 0 32 32" fill="none" xmlns="http://www.w3.org/2000/svg">
<path d="M18.69 29.52H13.28C7.05 29.52 2 24.46 2 18.23V12.96H29.97V18.23C29.97 24.46 24.92 29.52 18.69 29.52Z" fill="#B4ACBC"/>
<path d="M21.97 4.95996H10C5.58 4.95996 2 8.53996 2 12.96C2 17.38 5.58 20.96 10 20.96H21.97C26.39 20.96 29.97 17.38 29.97 12.96C29.97 8.53996 26.39 4.95996 21.97 4.95996Z" fill="#E1D8EC"/>
<path d="M28.2398 11.69C28.2398 11.59 28.2298 11.49 28.2298 11.38C28.0498 8.97 26.1098 7.03 23.7098 6.86C23.6798 6.86 23.6498 6.86 23.6198 6.85C22.1198 6.77 20.7498 6.02 19.8098 4.84C18.9198 3.72 17.5398 3 15.9998 3C14.4598 3 13.0798 3.72 12.1898 4.84C11.2498 6.02 9.87977 6.77 8.37977 6.85C8.34977 6.85 8.31977 6.85 8.28977 6.86C5.88977 7.03 3.94977 8.97 3.76977 11.38C3.75977 11.48 3.75977 11.59 3.75977 11.69C3.75977 15.46 6.81977 18.52 10.5898 18.52H21.4198C25.1798 18.52 28.2398 15.46 28.2398 11.69Z" fill="#44911B"/>
<path d="M24.8297 12.23C26.4897 10.3 26.4797 7.49004 24.9097 5.58004C24.6097 5.21004 24.0497 5.20004 23.7397 5.57004L22.6933 6.78644L22.0696 9.60268L19.134 10.9243L18.0797 12.15C17.7697 12.51 17.8597 13.06 18.2697 13.31C20.3797 14.56 23.1597 14.16 24.8297 12.23Z" fill="#F8312F"/>
<path d="M27.2736 15.2602C26.3836 17.3071 24.3429 18.7399 21.9702 18.7399H10.0002C7.51905 18.7399 5.40088 17.1731 4.58203 14.9758C5.79931 13.5272 7.57535 12.5593 9.56022 12.42C11.1002 12.32 12.5302 12.69 13.7502 13.41C15.0202 14.16 16.6302 14.16 17.9002 13.41C19.1102 12.69 20.5502 12.32 22.0802 12.43C24.188 12.5779 26.0564 13.6602 27.2736 15.2602Z" fill="#86D72F"/>
<path d="M7.97968 16.01C10.3097 17.04 12.9997 16.22 14.3697 14.17C14.6297 13.78 14.4797 13.24 14.0497 13.04L12.5767 12.388L9.64661 12.3084L7.58961 10.1806L6.11968 9.53002C5.67968 9.33002 5.17968 9.58002 5.05968 10.04C4.46968 12.43 5.64968 14.98 7.97968 16.01Z" fill="#F92F60"/>
<path d="M22.7199 6.75C23.8799 7.75 24.0099 9.5 23.0099 10.66C22.0099 11.82 20.2599 11.96 19.0999 10.95L22.7199 6.75Z" fill="#CA0B4A"/>
<path d="M12.6201 12.41C12.0001 13.81 10.3601 14.44 8.96006 13.82C7.56006 13.2 6.93006 11.56 7.55006 10.16L12.6201 12.41Z" fill="#CA0B4A"/>
<path d="M14.57 10.49C15.5807 10.49 16.4 9.67064 16.4 8.65996C16.4 7.64927 15.5807 6.82996 14.57 6.82996C13.5593 6.82996 12.74 7.64927 12.74 8.65996C12.74 9.67064 13.5593 10.49 14.57 10.49Z" fill="#F9C23C"/>
<path d="M24.1501 16.05C25.1607 16.05 25.9801 15.2307 25.9801 14.22C25.9801 13.2093 25.1607 12.39 24.1501 12.39C23.1394 12.39 22.3201 13.2093 22.3201 14.22C22.3201 15.2307 23.1394 16.05 24.1501 16.05Z" fill="#F9C23C"/>
<path d="M15.3499 16.32C15.3499 17.3307 14.5306 18.15 13.5199 18.15C12.5093 18.15 11.6899 17.3307 11.6899 16.32C11.6899 15.3093 12.5093 14.49 13.5199 14.49C14.5306 14.49 15.3499 15.3093 15.3499 16.32Z" fill="#F9C23C"/>
</svg>

<svg xmlns="http://www.w3.org/2000/svg" width="32" height="32" fill="none"><path fill="#B4ACBC" d="M18.69 29.52h-5.41C7.05 29.52 2 24.46 2 18.23v-5.27h27.97v5.27c0 6.23-5.05 11.29-11.28 11.29Z"/><path fill="#E1D8EC" d="M21.97 4.96H10c-4.42 0-8 3.58-8 8s3.58 8 8 8h11.97c4.42 0 8-3.58 8-8s-3.58-8-8-8Z"/><path fill="#44911B" d="M28.24 11.69c0-.1-.01-.2-.01-.31-.18-2.41-2.12-4.35-4.52-4.52-.03 0-.06 0-.09-.01-1.5-.08-2.87-.83-3.81-2.01a4.862 4.862 0 0 0-7.62 0c-.94 1.18-2.31 1.93-3.81 2.01-.03 0-.06 0-.09.01-2.4.17-4.34 2.11-4.52 4.52-.01.1-.01.21-.01.31 0 3.77 3.06 6.83 6.83 6.83h10.83c3.76 0 6.82-3.06 6.82-6.83Z"/><path fill="#F8312F" d="M24.83 12.23a5.17 5.17 0 0 0 .08-6.65.755.755 0 0 0-1.17-.01l-1.047 1.216-.623 2.817-2.936 1.321-1.054 1.226c-.31.36-.22.91.19 1.16 2.11 1.25 4.89.85 6.56-1.08Z"/><path fill="#86D72F" d="M27.274 15.26a5.784 5.784 0 0 1-5.304 3.48H10a5.786 5.786 0 0 1-5.418-3.764A7.172 7.172 0 0 1 9.56 12.42c1.54-.1 2.97.27 4.19.99 1.27.75 2.88.75 4.15 0a7.135 7.135 0 0 1 4.18-.98c2.108.148 3.976 1.23 5.194 2.83Z"/><path fill="#F92F60" d="M7.98 16.01c2.33 1.03 5.02.21 6.39-1.84.26-.39.11-.93-.32-1.13l-1.473-.652-2.93-.08-2.057-2.127-1.47-.651c-.44-.2-.94.05-1.06.51-.59 2.39.59 4.94 2.92 5.97Z"/><path fill="#CA0B4A" d="M22.72 6.75c1.16 1 1.29 2.75.29 3.91-1 1.16-2.75 1.3-3.91.29l3.62-4.2ZM12.62 12.41a2.774 2.774 0 0 1-5.07-2.25l5.07 2.25Z"/><path fill="#F9C23C" d="M14.57 10.49a1.83 1.83 0 1 0 0-3.66 1.83 1.83 0 0 0 0 3.66ZM24.15 16.05a1.83 1.83 0 1 0 0-3.66 1.83 1.83 0 0 0 0 3.66ZM15.35 16.32a1.83 1.83 0 1 1-3.66 0 1.83 1.83 0 0 1 3.66 0Z"/></svg>
